copytrade/img/icomoon/logout.svg

<svg width="14" height="18" viewBox="0 0 14 18" fill="none" xmlns="http://www.w3.org/2000/svg">
<path d="M13.7634 1.96729C13.6119 1.81587 13.4065 1.7308 13.1923 1.7308C13.1922 1.7308 13.1921 1.7308 13.1921 1.7308L12.3846 1.73108V2.53878V3.34649V14.6539V15.4616V16.2693H13.1923C13.6384 16.2693 14 15.9077 14 15.4616V2.53851C14 2.32423 13.9149 2.11878 13.7634 1.96729Z" fill="#646E82"/>
<path d="M10.4807 0.304268C10.2978 0.1508 10.0563 0.0860744 9.82119 0.127721L0.667318 1.74406C0.281358 1.81219 0 2.14755 0 2.53945V15.4616C0 15.8535 0.281393 16.1889 0.667353 16.257L9.82122 17.8724C9.86797 17.8806 9.91486 17.8847 9.96153 17.8847C10.15 17.8847 10.3342 17.8187 10.4807 17.6957C10.6637 17.5423 10.7692 17.3158 10.7692 17.077V16.9096V16.2693V15.4616V14.6539V3.34687V2.53917V1.73147V0.923069C10.7692 0.684329 10.6637 0.457806 10.4807 0.304268ZM7.30205 10.1098C7.15188 10.2601 6.94344 10.3462 6.73079 10.3462C6.51812 10.3462 6.31027 10.26 6.15947 10.1097C6.00923 9.95905 5.92309 9.7512 5.92309 9.53846C5.92309 9.32578 6.00923 9.11786 6.15947 8.9672C6.31023 8.81693 6.51808 8.73075 6.73079 8.73075C6.94344 8.73075 7.15188 8.81689 7.30205 8.9672C7.45229 9.11793 7.5385 9.32578 7.5385 9.53846C7.53846 9.75123 7.45225 9.95909 7.30205 10.1098Z" fill="#646E82"/>
</svg>

<svg width="14" height="18" fill="none" xmlns="http://www.w3.org/2000/svg"><path d="M13.763 1.967a.808.808 0 00-.57-.236h-.808V16.27h.807a.808.808 0 00.808-.807V2.539a.808.808 0 00-.237-.572zM10.48.304a.807.807 0 00-.659-.176L.667 1.744A.808.808 0 000 2.54v12.923c0 .392.281.727.667.795l9.154 1.615a.812.812 0 00.66-.176.807.807 0 00.288-.619V.923a.808.808 0 00-.288-.619zM7.303 10.11a.813.813 0 01-.571.236.815.815 0 01-.572-.236.814.814 0 01-.236-.572c0-.212.086-.42.236-.57a.815.815 0 01.572-.237c.212 0 .42.086.571.236.15.15.237.359.237.571a.818.818 0 01-.237.572z" fill="#646E82"/></svg>
